X: 18
T: Mr John Shaw Stewards Strathspey
R: strathspey
B: Bland & Weller, eds. "24 Favorite Country Dances, Hornpipes and Reels", 1803, London p.9 #18
S: http://imslp.org/wiki/24_Favorite_Country_Dances,_Hornpipes_and_Reels_(Various)
M: C
L: 1/8
Z: 2012 John Chambers <jc:trillian.mit.edu>
K: Gm
G |\
DGG>c {Bc}d2Tc>B | AFcF dFcF |\
DGG>c d>efd | c<A fA G2G :|
A |\
Ggg>a {ga}b2ag | fcac fcaf |\
dgg>a {ga}b2ag | fd cA G3 ||
A |\
Ggga {ga}b2ag | fcfg a>gfa |\
gafg dfcf | AFcA {A}G2G |]
%%begintext align
%% Set & change Sides .|
%% back again .|
%% Down the middle & up again :|.
%% Right & left at top :|:
%%endtext

%%sep 1 1 500
%%sep 1 1 500
